X: 1
T:The Kinross Hornpipe
M:C|
L:1/8
Q:80
C:Bruce Gandy
S:Hornpipe
K:HP
|: {ag}ae/2{A}e/2{g}f/2e/2{g}c/2{d}A/2|
{g}c/2e/2{A}e/2a/2{fg}f{g}e/2f/2|
{ag}ae/2{A}e/2{g}f/2e/2{g}c/2{d}A/2|  !
{gBeBG}B{g}c/2A/2{g}B/2f/2{g}e/2f/2a/2e/2{A}e/2a/2{fg}f/2e/2{g}c/2{d}A/2
|
{g}c/2e/2{A}e/2a/2{fg}f{g}e/2f/2|
{ag}a{AGAG}A{g}f/2e/2{g}c/2{d}A/2|  !
{gBeBG}B{g}B/2{d}c/2{g}A/2{d}A/2{e}A/2:| |:
B/2|
{g}c/2e/2{g}e/2{A}e/2{g}A/2f/2{g}e/2A/2|
{gcecG}c{g}c/2B/2{g}c/2f/2{g}f/2e/2|  !
{g}c/2e/2{g}e/2{A}e/2{g}A/2f/2{g}e/2c/2|
{gBeBG}B{g}B/2{d}c/2{g}f/2e/2{A}e/2|1 B/2{g}c/2e/2{g}e/2{A}e/2{g}A/2f/2{
g}e/2A/2|
{gcecG}c{g}c/2B/2{g}c/2f/2{g}f/2e/2|  !
{ag}a{AGAG}A{g}f/2e/2{g}c/2{d}A/2|
{gBeBG}B{g}B/2{d}c/2{g}A/2{d}A/2{e}A/2:| |:
B/2|  !
{g}c/2A/2{gAGAG}A{g}c/2e/2{g}e/2{A}e/2|
{g}((3c/2B/2A/2){gAGAG}A{g}f/2e/2{A}e/2a/2|
c/2A/2{gAGAG}A{g}e/2A/2{gAGAG}A|  !
{gBeBG}B{g}B/2A/2{g}B/2f/2{g}e/2B/2{g}c/2A/2{gAGAG}A{g}c/2e/2{g}e/2{A}e/
2|
{g}((3c/2B/2A/2){gAGAG}A{g}f/2e/2{A}e/2f/2|
{ag}a{AGAG}A{g}f/2e/2{g}c/2{d}A/2|  !
{gBeBG}B{g}B/2{d}c/2{g}A/2{d}A/2{e}A/2:| |:
e/2|
{g}f/2a/2{g}a/2e/2{g}f/2e/2{gcd}c/2B/2|
{gAGAG}A{g}A/2B/2{gcecG}c{g}c/2e/2|  !
{g}f/2a/2{g}a/2e/2{g}f/2e/2{g}c/2{d}A/2|
{gBeBG}B{g}B/2{d}c/2{g}f/2e/2{A}e/2f/2|1 a/2A/2{gAGAG}A{g}f/2e/2{gcd}c/2
B/2|
{gAGAG}A{g}A/2B/2{gcecG}c{g}c/2e/2|  !
{ag}a{AGAG}A{g}f/2e/2{g}c/2{d}A/2|
{gBeBG}B{g}B/2{d}c/2{g}A/2{d}A/2{e}A/2:|
